img/prev.svg

<svg width="42" height="25" viewBox="0 0 42 25" fill="none" xmlns="http://www.w3.org/2000/svg">
<path d="M1.16242 12.8849L11.5944 23.9685C11.8468 24.2318 12.2784 24.2341 12.5217 23.999C12.7686 23.7602 12.7868 23.3222 12.5522 23.0716L3.15941 13.0882L40.7707 13.0882C41.1309 13.0882 41.4229 12.7962 41.4229 12.436C41.4229 12.0758 41.1309 11.7838 40.7707 11.7838L3.15941 11.7838L12.5522 1.80033C12.7868 1.54974 12.7723 1.10769 12.5217 0.873021C12.2711 0.638355 11.8672 0.63244 11.5944 0.903493L1.16242 11.9871C0.914559 12.2923 0.979596 12.6661 1.16242 12.8835L1.16242 12.8849Z" fill="white" stroke="white"/>
</svg>

<svg width="42" height="25" fill="none" xmlns="http://www.w3.org/2000/svg"><path d="M1.162 12.885l10.432 11.083a.67.67 0 00.928.031c.247-.239.265-.677.03-.927L3.16 13.088h37.612a.652.652 0 000-1.304H3.159L12.552 1.8a.682.682 0 00-.03-.927.663.663 0 00-.928.03L1.162 11.987a.7.7 0 000 .896v.002z" fill="#fff" stroke="#fff"/></svg>
